X:463
T: Anning minge
N: C1498
O: China, Yunnan, Anning
S: II, 87]
R: Xiaodiao]
M: 3/4
L: 1/8
K: Eb
f2fgf2 | fec2B2 | f2f2cB | B2F4
F2f2e2 | cBB2F2 | c2B2FE | F6
f2fbgf | fee2c2 | f2f2cB | B2F4
F2f2e2 | cBB2F2 | c2B2FE | F6

